app/client/src/widgets/wds/WDSPhoneInputWidget/thumbnail.svg

<svg width="72" height="76" viewBox="0 0 72 76" fill="none" xmlns="http://www.w3.org/2000/svg">
<rect x="8.5" y="26.5" width="55" height="23" rx="2.5" fill="white"/>
<rect x="8.5" y="26.5" width="55" height="23" rx="2.5" stroke="#CDD5DF"/>
<path d="M15.5 38.5H23.5" stroke="#CC3D00" stroke-linecap="round"/>
<path d="M19.5 42.5V34.5" stroke="#CC3D00" stroke-linecap="round"/>
<path d="M27.5 43.5H30M32.5 43.5H30M27.5 35.5L30 33.5V43.5" stroke="#CC3D00" stroke-linecap="round" stroke-linejoin="round"/>
<path d="M51.5 43.5001H53.5M55.5 43.5001H53.5M53.5 43.5001V55.4999M51.5 55.4999H55.5" stroke="#6A7585" stroke-linecap="round" stroke-linejoin="round"/>
</svg>

<svg xmlns="http://www.w3.org/2000/svg" width="72" height="76" fill="none"><rect width="55" height="23" x="8.5" y="26.5" fill="#fff" rx="2.5"/><rect width="55" height="23" x="8.5" y="26.5" stroke="#CDD5DF" rx="2.5"/><path stroke="#CC3D00" stroke-linecap="round" d="M15.5 38.5h8M19.5 42.5v-8"/><path stroke="#CC3D00" stroke-linecap="round" stroke-linejoin="round" d="M27.5 43.5H30m2.5 0H30m-2.5-8 2.5-2v10"/><path stroke="#6A7585" stroke-linecap="round" stroke-linejoin="round" d="M51.5 43.5h2m2 0h-2m0 0v12m-2 0h4"/></svg>
